X:1
T:Title
L:1/8
M:2/4
K:G
V:1 treble nm="Grand Piano"
V:1
 z2[Q:1/4=100] DD | G4- | G2 F2 | F2 E2 | F2 G2 | DD DE | DC B,2 | C2 B,C | E2 D2- | DD D2 | %10
 G2 GG | AF FE | F2 G2 | z D DE | D2[K:bass] B,B, | C2 B,C | E2 D2 | B2 Bc | BA G2 | B2 Bc | %20
 BA G2 | AA AB | AG FF | G2 FG | BA G2 | B2 Bc | BA G2 | B2 Bc | BA G2 | AA AB | AG FF | GG FG | %32
 BA G2- | G2 z2 |] %34

